public/avatar/shoe/95.svg

<svg xmlns:xlink="http://www.w3.org/1999/xlink" height="38.3" width="36.05" xmlns="http://www.w3.org/2000/svg"><use height="18.7" transform="translate(9.75 11.25)" width="21.9" xlink:href="#a"/><defs><g id="a" fill-rule="evenodd"><path d="M-4.9-3.6q3.55 0 5.15 2.5l1.8.05Q4.2-.75 6.15.2q1.6.8 1.7 3 .05 1.55-.5 2.8.75.8-.2 2.15-2.8 3.85-10.4 6.2-6.4 1.8-9.3-.6l-1-2.15Q-15.5 7.05-9.45-.1q.9-3.5 4.55-3.5" transform="translate(14.05 3.6)"/><path d="M-.45-.2H1.3q2.15.15 3.85 1Q7.9 2.15 6.2 5.75q.65.85-.15 1.8-2.35 3.1-9.3 5.6-5.65 1.9-8.1-.7l-.8-1.9q-1.7-3.95 3.6-10 .65-3 4-3Q-2-2.45-.45-.2" fill="#cdcbcc" transform="translate(14.05 3.6)"/><path d="M5.45 4.1q-5 1.95-6.1 3.05-4.6 4.65-8.9 4.1-2.5-.3-1.7-2.7.6-1.9 3.7-7.2 3.2-5.25 6.5-1.55.9 1 .05 2.5-.3.65-.05 1.05l1.1-.05 3-1 2.3-.35q.4.2.5.95.05.8-.4 1.2" fill="#fff" transform="translate(14.05 3.6)"/><path d="M1.05 1.65q-1.35.4-1.2-.2Q0 .95-.15.4L1.8.2q1.6.2 2.05.7.3.35-.5.4l-2.3.35" fill="#171717" transform="translate(14.05 3.6)"/><path d="M.2 4.05q-5.35 6.05-6.7 6.45-4.65 1.4-4.85-1.25l1.55.5q1.85.3 3.5-.55 1.45-.7 3.45-3.25 2.05-2.7 2.8-3.1Q1.7 1.8 4.5 1.9q.75-.35.95.65-3.8-.2-5.25 1.5" fill="#dc0000" transform="translate(14.05 3.6)"/><path d="M-4.85 5.7Q-5.8 7.85-8.9 8.35q-2.9.4-2.55-1.55l1.15-1.9v.65q.2.7 1.2.75l4.25-.6" fill="#cdcbcc" transform="translate(14.05 3.6)"/><path d="M-9.9 3.6-8.3.95-9.7 5.2q-.1 1.25 2.6.35 1-.35 3.5-4.2.9-.8 2.15.2Q-3.9 5.8-6.3 6.65q-5 1.55-4.4-.85l.8-2.2m5.95-5.4q2.45.35 3 1.95L-2.1.3Q-3.6-2-6.55-.95l.7-.55 1.9-.3" fill="#dc0000" transform="translate(14.05 3.6)"/><path d="M5.5 6.3Q6.65 6.85 5 8L.45 10.3l-3.25 1.3 5.2-3.15L5.5 6.3" fill="#f0f1f1" transform="translate(14.05 3.6)"/><path d="M1.4 9.25q-4.85 3.25-7.3 3.6-3 .45-4.75-.6l-1.15-1.1 1.4 1q1.9.85 4.45.3 2.25-.6 7.4-3.75 2.2-1.4 4.4-2.55L1.4 9.25" fill="#6f6a80" transform="translate(14.05 3.6)"/><path d="M-7.5-.15q.4-.75 2.75-.45Q-3.7-.45-3.5.45q.15.5-1.05 1.2-1.25.7-2.3.35-1.45-.45-.65-2.15m13.35 3.5q1 .85-.8 1.2-2.65.55-5.3 2.3L-1.8 8.3l3.4-3.4q.8-.5 2.8-.7 1.5-.2 1.45-.85" fill="#f0f1f1" transform="translate(14.05 3.6)"/><path d="M-2.75-1.85q2.3.95 1.9 2.1L-1.5-.2-3-1.4l-1.95-.25-1 .2 1.05-.4q1.2-.35 2.15 0M5 1.7q1.2 1.1-.2 1.1-1.45 0-3.4.55L-.85 4.4l-1.6 1.15.8-1.25Q-.6 3 .4 2.6q1.9-.75 3.1-.75L5 1.7m-9.25.45Q-3.6 1.2-3.15 1-2.5.8-2 1q.65.3.55.6l-1.4 1.9q.8-1.2.2-1.6l-1.6.25" fill="#ff3244" transform="translate(14.05 3.6)"/></g></defs></svg>

<?xml version="1.0" encoding="UTF-8" standalone="no"?>
<svg xmlns:xlink="http://www.w3.org/1999/xlink" height="38.3px" width="36.05px" xmlns="http://www.w3.org/2000/svg">
  <g transform="matrix(1.0, 0.0, 0.0, 1.0, 23.8, 14.85)">
    <use height="18.7" transform="matrix(1.0, 0.0, 0.0, 1.0, -14.05, -3.6)" width="21.9" xlink:href="#shape0"/>
  </g>
  <defs>
    <g id="shape0" transform="matrix(1.0, 0.0, 0.0, 1.0, 14.05, 3.6)">
      <path d="M-4.9 -3.6 Q-1.35 -3.6 0.25 -1.1 L2.05 -1.05 Q4.2 -0.75 6.15 0.2 7.75 1.0 7.85 3.2 7.9 4.75 7.35 6.0 8.1 6.8 7.15 8.15 4.35 12.0 -3.25 14.35 -9.65 16.15 -12.55 13.75 L-13.55 11.6 Q-15.5 7.05 -9.45 -0.1 -8.55 -3.6 -4.9 -3.6" fill="#000000" fill-rule="evenodd" stroke="none"/>
      <path d="M-0.45 -0.2 L1.3 -0.2 Q3.45 -0.05 5.15 0.8 7.9 2.15 6.2 5.75 6.85 6.6 6.05 7.55 3.7 10.65 -3.25 13.15 -8.9 15.05 -11.35 12.45 L-12.15 10.55 Q-13.85 6.6 -8.55 0.55 -7.9 -2.45 -4.55 -2.45 -2.0 -2.45 -0.45 -0.2" fill="#cdcbcc" fill-rule="evenodd" stroke="none"/>
      <path d="M5.45 4.1 Q0.45 6.05 -0.65 7.15 -5.25 11.8 -9.55 11.25 -12.05 10.95 -11.25 8.55 -10.65 6.65 -7.55 1.35 -4.35 -3.9 -1.05 -0.2 -0.15 0.8 -1.0 2.3 -1.3 2.95 -1.05 3.35 L0.05 3.3 3.05 2.3 5.35 1.95 Q5.75 2.15 5.85 2.9 5.9 3.7 5.45 4.1" fill="#ffffff" fill-rule="evenodd" stroke="none"/>
      <path d="M1.05 1.65 Q-0.3 2.05 -0.15 1.45 0.0 0.95 -0.15 0.4 L1.8 0.2 Q3.4 0.4 3.85 0.9 4.15 1.25 3.35 1.3 L1.05 1.65" fill="#171717" fill-rule="evenodd" stroke="none"/>
      <path d="M0.2 4.05 Q-5.15 10.1 -6.5 10.5 -11.15 11.9 -11.35 9.25 L-9.8 9.75 Q-7.95 10.05 -6.3 9.2 -4.85 8.5 -2.85 5.95 -0.8 3.25 -0.05 2.85 1.7 1.8 4.5 1.9 5.25 1.55 5.45 2.55 1.65 2.35 0.2 4.05" fill="#dc0000" fill-rule="evenodd" stroke="none"/>
      <path d="M-4.85 5.7 Q-5.8 7.85 -8.9 8.35 -11.8 8.75 -11.45 6.8 L-10.3 4.9 -10.3 5.55 Q-10.1 6.25 -9.1 6.3 L-4.85 5.7" fill="#cdcbcc" fill-rule="evenodd" stroke="none"/>
      <path d="M-9.9 3.6 L-8.3 0.95 -9.7 5.2 Q-9.8 6.45 -7.1 5.55 -6.1 5.2 -3.6 1.35 -2.7 0.55 -1.45 1.55 -3.9 5.8 -6.3 6.65 -11.3 8.2 -10.7 5.8 L-9.9 3.6" fill="#dc0000" fill-rule="evenodd" stroke="none"/>
      <path d="M-3.95 -1.8 Q-1.5 -1.45 -0.95 0.15 L-2.1 0.3 Q-3.6 -2.0 -6.55 -0.95 L-5.85 -1.5 -3.95 -1.8" fill="#dc0000" fill-rule="evenodd" stroke="none"/>
      <path d="M5.5 6.3 Q6.65 6.85 5.0 8.0 L0.45 10.3 -2.8 11.6 2.4 8.45 5.5 6.3" fill="#f0f1f1" fill-rule="evenodd" stroke="none"/>
      <path d="M1.4 9.25 Q-3.45 12.5 -5.9 12.85 -8.9 13.3 -10.65 12.25 L-11.8 11.15 -10.4 12.15 Q-8.5 13.0 -5.95 12.45 -3.7 11.85 1.45 8.7 3.65 7.3 5.85 6.15 L1.4 9.25" fill="#6f6a80" fill-rule="evenodd" stroke="none"/>
      <path d="M-7.5 -0.15 Q-7.1 -0.9 -4.75 -0.6 -3.7 -0.45 -3.5 0.45 -3.35 0.95 -4.55 1.65 -5.8 2.35 -6.85 2.0 -8.3 1.55 -7.5 -0.15" fill="#f0f1f1" fill-rule="evenodd" stroke="none"/>
      <path d="M5.85 3.35 Q6.85 4.2 5.05 4.55 2.4 5.1 -0.25 6.85 L-1.8 8.3 1.6 4.9 Q2.4 4.4 4.4 4.2 5.9 4.0 5.85 3.35" fill="#f0f1f1" fill-rule="evenodd" stroke="none"/>
      <path d="M-2.75 -1.85 Q-0.45 -0.9 -0.85 0.25 L-1.5 -0.2 -3.0 -1.4 -4.95 -1.65 -5.95 -1.45 -4.9 -1.85 Q-3.7 -2.2 -2.75 -1.85" fill="#ff3244" fill-rule="evenodd" stroke="none"/>
      <path d="M5.0 1.7 Q6.2 2.8 4.8 2.8 3.35 2.8 1.4 3.35 L-0.85 4.4 -2.45 5.55 -1.65 4.3 Q-0.6 3.0 0.4 2.6 2.3 1.85 3.5 1.85 L5.0 1.7" fill="#ff3244" fill-rule="evenodd" stroke="none"/>
      <path d="M-4.25 2.15 Q-3.6 1.2 -3.15 1.0 -2.5 0.8 -2.0 1.0 -1.35 1.3 -1.45 1.6 L-2.85 3.5 Q-2.05 2.3 -2.65 1.9 L-4.25 2.15" fill="#ff3244" fill-rule="evenodd" stroke="none"/>
    </g>
  </defs>
</svg>
